X:14950
T:Schottis efter Luringen och Spel-Bengten, #3
R:Schottis
Z:Transcribed by Henrik Norbeck.
K:D
M:C|
a2ag eceg|gfaf d2fg|a2ag eceg|f2af d4:|
|:ABcd e2g2|faag e2c2|Acec d2d2|EGB2 (3BcBA2
ABcd e2g2|faag e2c2|Acec d2d2|EGB2 A4:|
